X:1
T:Valse en la mineur
T:Valse en la mineur
T:Brown-Index 150
T:Frédéric Chopin
T:Public Domain
C:Frédéric Chopin
Z:Public Domain
L:1/8
Q:1/4=144
M:3/4
K:C
V:1 treble nm="Flute"
V:1
"^Allegretto" (E2 | AB c2) c2 | (de f4) | (Bcdagf) |{ef} (e^d e4) | (AB c2) c2 | (de f4) | %7
 (BcdagB | c2) z2 E2 | AB c2 c2 | de f4 | Bcdagf |{ef} e^d e4 | cd e2 e2 | fg a4 | g2 ^fgd'=f | %16
 e6 |: (e^f^gabc' |{bc'} baeb) a2 |{ab} (a^gef e2) |{ef} (ecAB A2) | %21
 (3(E^GB (5:4:5e/^g/b/e'/^g'/ b'>c') |{bc'} (baeb) a2 |{ab} (a^gee' e'2 | a4) z2 :: (AB c2) c2 | %26
 (de f4) | (Bcdagf) |{ef} (e^d e4) | (cd e2) e2 | (fg a4) | (^de ^f2) f2 | (^ga b4) | %33
 (b^c'd'^f'e'd' | P^c'bc'^ga^f) |({e^f} ed^Gf e2) |({e^f} e^cAf e2) | (b^c'd'^f'e'd' | %38
 P^c'bc'^ga^f) |({e^f} ed^G^feG | A2) z2 E2 :| (AB =c2) c2 | (de f4) | (Bcdagf) |{ef} (e^d e4) | %45
 (AB c2) c2 | (de f4) | (BcdagB | c2) z2 E2 | (AB c2) c2 | (de f4) | z (Pe^deb=d | c4) z2 | %53
 z (c'bagf | ed^cdef) | (!trill(!Te2 ^def^G) | A4 z2 |] %57

